X:243
T:The Sailor On The Rock
R:reel
M:4/4
L:1/8
K:Dmaj
defd BAFB|AD (3FED FAAB|defd BAFB|1 ABdf efdB:|2 ABdf efd2||
faag fedf|gfga be~e2|faag fedB|ABdf efd2|
faag fedf|gfga be~e2|fgfe d2dB|ABdf efdB||

